svg/fluentui-system-icons/ic_fluent_attach_text_24_filled.svg

<svg width="24" height="24" viewBox="0 0 24 24" fill="none" xmlns="http://www.w3.org/2000/svg">
<path d="M7 3C9.68875 3 11.8818 5.12231 11.9954 7.78311L12 8V19C12 20.6569 10.6569 22 9 22C7.40232 22 6.09634 20.7511 6.00509 19.1763L6 19V9C6 8.44772 6.44772 8 7 8C7.51284 8 7.93551 8.38604 7.99327 8.88338L8 9V19C8 19.5523 8.44772 20 9 20C9.51284 20 9.93551 19.614 9.99327 19.1166L10 19V8C10 6.34315 8.65685 5 7 5C5.40232 5 4.09634 6.24892 4.00509 7.82373L4 8V17C4 17.5523 3.55228 18 3 18C2.48716 18 2.06449 17.614 2.00673 17.1166L2 17V8C2 5.23858 4.23858 3 7 3ZM15 17H17C17.5523 17 18 17.4477 18 18C18 18.5128 17.614 18.9355 17.1166 18.9933L17 19H15C14.4477 19 14 18.5523 14 18C14 17.4872 14.386 17.0645 14.8834 17.0067L15 17H17H15ZM15 13H20.5C21.0523 13 21.5 13.4477 21.5 14C21.5 14.5128 21.114 14.9355 20.6166 14.9933L20.5 15H15C14.4477 15 14 14.5523 14 14C14 13.4872 14.386 13.0645 14.8834 13.0067L15 13H20.5H15ZM15 9H20.5C21.0523 9 21.5 9.44772 21.5 10C21.5 10.5128 21.114 10.9355 20.6166 10.9933L20.5 11H15C14.4477 11 14 10.5523 14 10C14 9.48716 14.386 9.06449 14.8834 9.00673L15 9H20.5H15ZM15 5H20.5C21.0523 5 21.5 5.44772 21.5 6C21.5 6.51284 21.114 6.93551 20.6166 6.99327L20.5 7H15C14.4477 7 14 6.55228 14 6C14 5.48716 14.386 5.06449 14.8834 5.00673L15 5H20.5H15Z" fill="#212121"/>
</svg>

<svg xmlns="http://www.w3.org/2000/svg" width="24" height="24"><path d="M7 3a5 5 0 0 1 4.995 4.783L12 8v11a3 3 0 0 1-5.995.176L6 19V9a1 1 0 0 1 1.993-.117L8 9v10a1 1 0 0 0 1.993.117L10 19V8a3 3 0 0 0-5.995-.176L4 8v9a1 1 0 0 1-1.993.117L2 17V8a5 5 0 0 1 5-5Zm8 14h2a1 1 0 0 1 .117 1.993L17 19h-2a1 1 0 0 1-.117-1.993L15 17h2-2Zm0-4h5.5a1 1 0 0 1 .117 1.993L20.5 15H15a1 1 0 0 1-.117-1.993L15 13h5.5H15Zm0-4h5.5a1 1 0 0 1 .117 1.993L20.5 11H15a1 1 0 0 1-.117-1.993L15 9h5.5H15Zm0-4h5.5a1 1 0 0 1 .117 1.993L20.5 7H15a1 1 0 0 1-.117-1.993L15 5h5.5H15Z"/></svg>
